X:78
T:Merry Maids of Shefnal. JJo8.078, The
B:J.Johnson Choice Collection Vol 8 1758
Z:vmp.Simon Wilson 2013 www.village-music-project.org.uk
M:2/4
L:1/8
Q:1/4=100
K:G
|:(G/A/B) GD|B,G,D2|(G/A/B) GD|(B/c/d) BD|
(G/A/B) GD|B,G,D2|(B/c/d) cB|{B} A4:|
|:(A/B/c) AD|(B/c/d) BD|(c/d/e) dD|(d/e/f) gG|
(e/d/c) cz|(d/c/B) Bz|((3BAG) DF|G4:|
